X:1
T:Morning Red
T:Morning Red
T:German Tune
T:Rossiter Worthington Raymond, 1872
T:Public Domain Courtesy of the Cyber Hymnal™
C:German Tune
Z:Public Domain
Z:Courtesy of the Cyber Hymnal™
%%score ( 1 2 ) 3
L:1/8
Q:1/4=110
M:3/4
K:G
V:1 treble 
V:2 treble 
V:3 bass 
V:1
 D[GB] | ([GB]2 [DG]) z D[Fc] | ([Ac]2 [FA]) z [DG][GB] | [G-d]2 [GB][Gd] [Fc][DF] | %4
w: 1.~Morn- ing|red, * morn- ing|red, * Now the|sha- * dows all are|
w: 2.~All a-|round, * all a-|round, * Sol- emn|si- * lence reigned pro-|
w: 3.~Forth He|came! * Forth He|came! * Robed in|white, * cel- es- tial|
w: 4.~Morn- ing|red! * Morn- ing|red! * Christ is|ris- * en from the|
w: 5.~Morn- ing|red! * Morn- ing|red! * Thou dost|light * His crown- ed|
 [D-A]2 [DG]2 D[GB][GB][GB][GB] ([FA]/[GB]/) | [Ac]2 [FA]2 z2 | D[Fc] [Ac][Ac] [Ac] ([GB]/[Ac]/) | %7
w: fled; * Now the Sab- bath’s cloud- less *|glo- ry,|Tells a- new the won- drous *|
w: found; * When, with blaze and sud- den *|thun- der,|An- gels burst the tomb a- *|
w: flame! * Mar- y, at the emp- ty *|pri- son,|Knew not her Re- deem- er *|
w: dead! * Still He walk- eth in the *|gar- den,|Speak- ing words of love and *|
w: head! * Bright- est jew- el of His *|glo- ry,|Ev- er shines that won- drous *|
 [Gd]2 [GB]2 [DG][GB] | [G-d]2 [GB][Dd] [Dd][DF] | [D-A]2 [DG]6 |] x8 |] %11
w: sto- ry, Christ is|ris- * en from the|dead. *||
w: sun- der, And the|Savi- * or was un-|bound. *||
w: ris- en Till He|called * her by her|name. *||
w: par- don. Though the|crown * is on His|head. *||
w: sto- ry, Christ is|ris- * en from the|dead. *||
V:2
 D x | x4 D x | x6 | x6 | x4 D x5 | x6 | D x5 | x6 | x6 | x8 |] x8 |] %11
V:3
 [G,B,][G,D] | ([G,D]2 [G,B,]) z [D,F,][D,A,] | [D,D]3 z [G,B,][G,D] | %3
 [G,-B,]2 [G,D][G,B,] [D,A,][D,C] | [G,-C]2 [G,B,]2 [G,B,][G,D][G,D][G,D][G,D][G,D] | %5
 [D,D]2 [D,D]2 z2 | [D,F,][D,A,] [D,D] x3 | [D,D][D,D] [D,D] x3 | [G,B,]2 [G,D]2 [G,B,][G,D] | %9
 [G,-B,]2 [G,D][G,B,] [D,A,][D,C] x2 |] [G,,-C]2 [G,,B,]6 |] %11

